X:1
T:Title
%%score { ( 1 3 4 ) | ( 2 5 6 ) }
L:1/8
M:4/4
K:Bb
V:1 treble nm="Grand Piano"
V:3 treble 
V:4 treble 
V:2 bass 
V:5 bass 
V:6 bass 
V:1
 z4 z2[Q:1/4=94] [B,D]>[CE] | [DF]>[DB] [DB]>[Ec] [Fd]>[DB] [DB]>[B,DF] | %2
[M:3/4] [B,EG]>[B,GB] [B,GB]>[B,EG] [B,DF]2 |[M:1/4][K:bass] [F,B,D]>[F,CE] | %4
[M:4/4][K:treble] [F,DF]>[DB] [DB]>[Ec] [Fd]>[DB] [Ge]>[Fd] | %5
[M:3/4] [=Ec]>[EB] [CEA]>[B,EG] [A,CF]2 |[M:1/4][K:bass] [F,B,D]>[F,CE] | %7
[M:4/4][K:treble] [F,DF]>[DB] [DB]>[Ec] [Fd]>[DB] [DB]>[DF] |[M:3/4] [EG]>[GB] [GB]>[EG] [DF]2 | %9
[M:1/4] [DB]>[FA] |[M:4/4] [FA]>[EG] [=Ec]>[EB] B<A d>c |[M:7/8] [Ec]<[DB][EB]>[Ec] [DB]3 | %12
[M:1/4] B>c |[M:4/4] z/ A3/2- A4 z2 | B6 z2 | z/ A3/2- A4 z2 |[M:9/8] A6- A z z | %17
[M:4/4] G>A B>G [DF]2 [DB]>[Ec] |[M:3/4] [Fd]>[DB] [Ge]>[Fd] G2 |[M:1/4] G>G | %20
[M:35/32] c>cB>G[DF]/ [DB]2- [DB]/(3:2:4[FB]3/2-[FB]/4[FB]3/4-[FB]/8 | %21
[M:7/8] z2 B3/2-B/4 z/4 z z2 |] %22
V:2
 z4 z2 [B,,F,]>[B,,F,] | [B,,F,]>[B,,F,] [B,,F,]>[B,,F,] [B,,F,]>[B,,F,] [B,,F,]>B,, | %2
[M:3/4] E,>E, E,>E, B,,2 |[M:1/4] B,,>B,, | %4
[M:4/4] B,,>[B,,F,] [B,,F,]>[B,,F,] [B,,B,]>[B,,B,] [B,,B,]>[B,,B,] | %5
[M:3/4] [C,G,]>[C,G,] C,>C, F,>E, |[M:1/4] D,>C, | %7
[M:4/4] B,,>[B,,F,] [B,,F,]>[B,,F,] [B,,F,]>[B,,F,] [B,,F,]>[B,,F,] | %8
[M:3/4] [E,B,]>[E,B,] [E,B,]>[E,B,] [B,,B,]2 |[M:1/4] [B,,B,]>[D,B,] | %10
[M:4/4] [E,B,]>[E,B,] [C,C]>[C,C] [F,DF]<[F,CF] [F,A,F]>[F,A,E] | %11
[M:7/8] [B,,F,]<[B,,F,][B,,G,]>[B,,^F,] [B,,=F,]3 |[M:1/4] z2 | %13
[M:4/4] z2 [F,C]>[F,C] [F,C]<[F,C] z2 | z2 [B,,B,]>[B,,B,] [B,,B,]2 z2 | %15
 z2 [A,,^F,]>[A,,F,] [A,,F,]<[A,,F,] [A,,G,]>[A,,G,] | %16
[M:9/8] [D,^F,D]2 [E,G,]- [E,G,]/[E,G,]/ [D,F,]2- [D,F,][D,F,C]>[D,F,C] | %17
[M:4/4] [G,B,]>[^F,A,D] [G,D]>[E,B,E] [B,,B,]2 [B,,=F,]>[B,,F,] | %18
[M:3/4] [B,,B,]>[B,,B,] [B,,B,]>[B,,B,] [E,B,E]2 |[M:1/4] [E,B,E]>[E,B,E] | %20
[M:35/32] [E,G,E]>[E,G,E][E,G,E]>[E,B,E][B,,B,]/ [B,,B,]2- [B,,B,]/(3:2:4[D,B,]3/2-[D,B,]/4[D,F,]3/4-[D,F,]/8 | %21
[M:7/8] z2 D3/2-D/4 z/4 z z2 |] %22
V:3
 x8 | x8 |[M:3/4] x6 |[M:1/4][K:bass] x2 |[M:4/4][K:treble] x8 |[M:3/4] x6 |[M:1/4][K:bass] x2 | %7
[M:4/4][K:treble] x8 |[M:3/4] x6 |[M:1/4] x2 |[M:4/4] x8 |[M:7/8] x7 |[M:1/4] x2 | %13
[M:4/4] .B2 E>E E<E c>d | z2 D>D D2 d>d | .d2 D>D D<D [_DA]>[D=B] |[M:9/8] z2 _D- D/D/ C2- C=D>D | %17
[M:4/4] x8 |[M:3/4] x6 |[M:1/4] x2 |[M:35/32] x35/4 |[M:7/8] .c z z2 [DB]3 |] %22
V:4
 x8 | x8 |[M:3/4] x6 |[M:1/4][K:bass] x2 |[M:4/4][K:treble] x8 |[M:3/4] x6 |[M:1/4][K:bass] x2 | %7
[M:4/4][K:treble] x8 |[M:3/4] x6 |[M:1/4] x2 |[M:4/4] x8 |[M:7/8] x7 |[M:1/4] x2 |[M:4/4] x8 | x8 | %15
 x8 |[M:9/8] x9 |[M:4/4] x8 |[M:3/4] x6 |[M:1/4] x2 |[M:35/32] x35/4 | %21
[M:7/8] z/ c/-c-c/4 z/4 z/ z/ [CA]/-[CA]/4 z/4 z/ z2 |] %22
V:5
 x8 | x8 |[M:3/4] x6 |[M:1/4] x2 |[M:4/4] x8 |[M:3/4] x6 |[M:1/4] x2 |[M:4/4] x8 |[M:3/4] x6 | %9
[M:1/4] x2 |[M:4/4] x8 |[M:7/8] x7 |[M:1/4] x2 |[M:4/4] x8 | x8 | x8 |[M:9/8] x9 |[M:4/4] x8 | %18
[M:3/4] x6 |[M:1/4] x2 |[M:35/32] x35/4 | %21
[M:7/8] z/ [E,G,E]/-[E,G,E]-[E,G,E]/4 z/4 z/ z/ F,/ z z2 |] %22
V:6
 x8 | x8 |[M:3/4] x6 |[M:1/4] x2 |[M:4/4] x8 |[M:3/4] x6 |[M:1/4] x2 |[M:4/4] x8 |[M:3/4] x6 | %9
[M:1/4] x2 |[M:4/4] x8 |[M:7/8] x7 |[M:1/4] x2 |[M:4/4] x8 | x8 | x8 |[M:9/8] x9 |[M:4/4] x8 | %18
[M:3/4] x6 |[M:1/4] x2 |[M:35/32] x35/4 | %21
[M:7/8] .[E,G,E] z F,>F,,-[F,,B,,-F,-]/<[B,,F,]/- [B,,F,]2 |] %22

